logos/micro-icon.svg

<?xml version="1.0" encoding="UTF-8"?>
<svg width="256px" height="256px" viewBox="0 0 256 256" version="1.1" xmlns="http://www.w3.org/2000/svg"  preserveAspectRatio="xMidYMid">
    <title>micro</title>
    <g>
        <path d="M128,0 C57.3023256,0 0,57.3023256 0,128 C0,198.697674 57.3023256,256 128,256 C198.697674,256 256,198.697674 256,128 C256,57.3023256 198.697674,0 128,0 Z M188.775194,145.364341 C187.534884,150.325581 185.550388,154.294574 182.821705,157.51938 C180.341085,160.744186 177.860465,162.728682 175.131783,163.72093 C172.403101,164.713178 169.674419,165.209302 166.697674,165.209302 C163.72093,165.209302 161.24031,164.713178 159.255814,163.472868 C157.271318,162.48062 155.782946,160.744186 154.542636,158.75969 C153.302326,156.775194 152.55814,154.294574 152.062016,151.565891 C151.565891,148.837209 151.317829,145.860465 151.317829,142.635659 C151.317829,141.395349 151.317829,140.155039 151.565891,138.418605 C151.813953,136.682171 152.062016,134.449612 152.310078,134.449612 L151.813953,134.449612 C147.844961,144.372093 142.387597,151.565891 135.44186,157.271318 C128.496124,162.976744 120.806202,165.705426 112.372093,165.705426 C106.666667,165.705426 101.953488,163.472868 98.7286822,159.255814 C95.255814,155.03876 93.5193798,148.589147 93.5193798,140.155039 C93.5193798,138.914729 93.5193798,137.674419 93.7674419,136.186047 C94.0155039,134.945736 94.0155039,134.449612 94.2635659,131.968992 L92.5271318,131.968992 C90.2945736,136.930233 88.3100775,143.875969 86.8217054,150.077519 C85.3333333,156.27907 84.0930233,161.984496 83.3488372,167.193798 C82.3565891,172.403101 81.8604651,177.116279 81.3643411,181.085271 C80.8682171,185.054264 80.620155,187.782946 80.372093,189.271318 C80.620155,190.511628 80.8682171,191.751938 81.1162791,193.24031 C81.6124031,194.728682 81.8604651,196.217054 82.3565891,197.457364 C82.8527132,198.697674 83.1007752,200.186047 83.3488372,201.426357 C83.5968992,202.666667 83.8449612,203.658915 83.8449612,204.403101 C83.8449612,207.875969 83.1007752,210.604651 81.6124031,212.341085 C80.124031,214.077519 78.3875969,215.069767 76.6511628,215.069767 C74.4186047,215.069767 72.4341085,214.325581 70.9457364,213.085271 C69.2093023,211.596899 68.4651163,209.364341 68.4651163,206.387597 C68.4651163,202.170543 69.2093023,196.713178 70.6976744,190.263566 C72.1860465,183.813953 74.4186047,175.627907 77.1472868,165.953488 C78.6356589,161.488372 79.875969,157.023256 81.3643411,152.55814 C82.8527132,148.093023 84.0930233,143.875969 85.3333333,140.155039 C86.5736434,136.434109 87.5658915,132.96124 88.5581395,129.984496 C89.5503876,127.007752 90.0465116,124.775194 90.2945736,123.03876 C90.5426357,122.294574 90.7906977,120.55814 91.0387597,118.077519 C91.2868217,115.596899 91.5348837,112.868217 92.0310078,109.643411 C92.5271318,106.418605 92.7751938,102.945736 93.2713178,99.4728682 C93.7674419,95.751938 94.2635659,92.5271318 94.5116279,89.5503876 C95.0077519,87.3178295 95.255814,84.8372093 95.751938,82.1085271 C96.248062,79.379845 96.9922481,76.6511628 97.9844961,74.4186047 C98.9767442,71.9379845 100.465116,69.9534884 102.20155,68.2170543 C103.937984,66.4806202 106.170543,65.7364341 108.899225,65.7364341 C111.875969,65.7364341 113.860465,66.7286822 114.852713,68.4651163 C115.844961,70.2015504 116.341085,72.4341085 116.093023,74.9147287 C115.844961,77.3953488 115.596899,80.124031 114.852713,82.8527132 C114.108527,85.5813953 113.364341,88.0620155 112.620155,90.0465116 C110.635659,96.248062 108.651163,101.953488 106.418605,106.666667 C104.186047,111.379845 102.20155,116.589147 100.465116,122.046512 C98.9767442,125.767442 98.4806202,129.24031 98.4806202,132.217054 C98.4806202,137.674419 100.217054,141.643411 103.44186,144.620155 C106.914729,147.596899 110.883721,148.837209 115.596899,148.837209 C119.317829,148.837209 123.03876,147.596899 126.511628,144.868217 C129.984496,142.139535 133.209302,138.914729 136.186047,135.193798 C139.162791,131.472868 141.643411,127.503876 143.627907,123.03876 C145.612403,118.821705 147.100775,114.852713 148.093023,111.627907 C148.341085,111.131783 148.589147,110.139535 148.837209,108.155039 C149.333333,106.170543 149.581395,103.937984 150.077519,101.457364 C150.573643,98.9767442 151.069767,96.496124 151.565891,93.7674419 C152.062016,91.0387597 152.55814,88.8062016 152.806202,87.0697674 C153.302326,85.0852713 153.550388,83.1007752 154.046512,80.620155 C154.542636,78.1395349 155.286822,75.9069767 156.27907,73.6744186 C157.271318,71.4418605 158.75969,69.7054264 160.248062,68.2170543 C161.984496,66.7286822 163.968992,65.9844961 166.697674,65.9844961 C169.922481,65.9844961 171.906977,66.9767442 173.147287,68.7131783 C174.139535,70.4496124 174.635659,72.6821705 174.635659,75.1627907 C174.387597,77.6434109 174.139535,80.124031 173.395349,82.6046512 C172.651163,85.0852713 172.155039,87.0697674 171.658915,88.5581395 C169.674419,94.7596899 167.689922,100.217054 165.705426,105.178295 C163.72093,110.139535 161.984496,114.604651 160.248062,118.077519 C158.75969,121.79845 157.51938,124.527132 156.527132,126.75969 C155.534884,128.992248 155.03876,130.48062 155.03876,131.224806 C155.03876,137.674419 156.527132,142.387597 159.255814,145.116279 C161.984496,147.844961 164.96124,149.333333 168.186047,149.333333 C173.643411,149.333333 177.860465,147.596899 181.085271,144.372093 C184.310078,140.899225 186.790698,134.697674 188.27907,127.255814 L190.263566,127.255814 C190.75969,134.449612 190.015504,140.403101 188.775194,145.364341 L188.775194,145.364341 Z" fill="#2E3192"></path>
    </g>
</svg>

<svg preserveAspectRatio="xMidYMid" viewBox="0 0 256 256" xmlns="http://www.w3.org/2000/svg">
  <path fill="#2E3192" d="M128 0C57.302 0 0 57.302 0 128c0 70.698 57.302 128 128 128 70.698 0 128-57.302 128-128C256 57.302 198.698 0 128 0Zm60.775 145.364c-1.24 4.962-3.225 8.93-5.953 12.155-2.48 3.225-4.962 5.21-7.69 6.202a24.155 24.155 0 0 1-8.434 1.488c-2.977 0-5.458-.496-7.442-1.736-1.985-.992-3.473-2.729-4.713-4.713-1.24-1.985-1.985-4.465-2.481-7.194-.496-2.729-.744-5.706-.744-8.93 0-1.24 0-2.481.248-4.217.248-1.737.496-3.97.744-3.97h-.496c-3.969 9.923-9.426 17.117-16.372 22.822-6.946 5.706-14.636 8.434-23.07 8.434-5.705 0-10.419-2.232-13.643-6.45-3.473-4.216-5.21-10.666-5.21-19.1 0-1.24 0-2.48.248-3.969.249-1.24.249-1.736.497-4.217h-1.737c-2.232 4.961-4.217 11.907-5.705 18.109-1.489 6.201-2.729 11.906-3.473 17.116-.992 5.21-1.489 9.922-1.985 13.891-.496 3.97-.744 6.698-.992 8.186.248 1.24.496 2.48.744 3.97.496 1.488.744 2.976 1.24 4.216.497 1.24.745 2.729.993 3.97.248 1.24.496 2.232.496 2.976 0 3.473-.744 6.202-2.233 7.938-1.488 1.737-3.224 2.729-4.96 2.729-2.233 0-4.218-.744-5.706-1.985-1.737-1.488-2.48-3.72-2.48-6.697 0-4.217.743-9.675 2.232-16.124 1.488-6.45 3.72-14.636 6.45-24.31 1.488-4.466 2.728-8.93 4.216-13.396 1.489-4.465 2.729-8.682 3.97-12.403 1.24-3.72 2.232-7.194 3.224-10.17.992-2.977 1.489-5.21 1.737-6.946.248-.744.496-2.48.744-4.961.248-2.481.496-5.21.992-8.435.496-3.224.744-6.697 1.24-10.17.496-3.721.993-6.946 1.24-9.923.497-2.232.745-4.713 1.24-7.441.497-2.73 1.241-5.458 2.233-7.69.993-2.481 2.481-4.466 4.218-6.202 1.736-1.736 3.969-2.48 6.697-2.48 2.977 0 4.961.992 5.954 2.728.992 1.737 1.488 3.97 1.24 6.45s-.496 5.209-1.24 7.938c-.744 2.728-1.489 5.209-2.233 7.194-1.984 6.201-3.969 11.906-6.201 16.62-2.233 4.713-4.217 9.922-5.954 15.38-1.488 3.72-1.984 7.193-1.984 10.17 0 5.457 1.736 9.426 4.96 12.403 3.474 2.977 7.443 4.217 12.156 4.217 3.72 0 7.442-1.24 10.915-3.969 3.472-2.728 6.697-5.953 9.674-9.674 2.977-3.721 5.457-7.69 7.442-12.155 1.984-4.217 3.473-8.186 4.465-11.411.248-.496.496-1.488.744-3.473.496-1.984.744-4.217 1.24-6.698.497-2.48.993-4.96 1.489-7.69.496-2.728.992-4.96 1.24-6.697.496-1.985.744-3.97 1.24-6.45.497-2.48 1.24-4.713 2.233-6.946.992-2.232 2.48-3.969 3.97-5.457 1.735-1.488 3.72-2.233 6.449-2.233 3.224 0 5.209.993 6.45 2.73.992 1.736 1.488 3.968 1.488 6.449-.248 2.48-.496 4.961-1.24 7.442-.745 2.48-1.241 4.465-1.737 5.953a247.854 247.854 0 0 1-5.954 16.62c-1.984 4.962-3.72 9.427-5.457 12.9-1.488 3.72-2.729 6.45-3.72 8.682-.993 2.232-1.49 3.72-1.49 4.465 0 6.45 1.49 11.163 4.218 13.891 2.728 2.729 5.705 4.217 8.93 4.217 5.457 0 9.674-1.736 12.9-4.96 3.224-3.474 5.705-9.675 7.193-17.117h1.985c.496 7.194-.248 13.147-1.489 18.108Z"/>
</svg>
